resources/svg/superscript.svg

<svg xmlns="http://www.w3.org/2000/svg" viewBox="0 0 14 14" fill="currentColor"><path d="M1.70843808,5.29059853 L4.53907097,8.09686618 L7.36970385,5.29059853 C7.7605327,4.90313382 8.39419145,4.90313382 8.7850203,5.29059853 C9.17584914,5.67806324 9.17584914,6.30626765 8.7850203,6.69373235 L5.95438741,9.5 L8.7850203,12.3062676 C9.17584914,12.6937324 9.17584914,13.3219368 8.7850203,13.7094015 C8.39419145,14.0968662 7.7605327,14.0968662 7.36970385,13.7094015 L4.53907097,10.9031338 L1.70843808,13.7094015 C1.31760923,14.0968662 0.683950477,14.0968662 0.293121633,13.7094015 C-0.097707211,13.3219368 -0.097707211,12.6937324 0.293121633,12.3062676 L3.12375452,9.5 L0.293121633,6.69373235 C-0.097707211,6.30626765 -0.097707211,5.67806324 0.293121633,5.29059853 C0.683950477,4.90313382 1.31760923,4.90313382 1.70843808,5.29059853 Z M11.6859406,0 C12.1131716,0 12.4979375,0.0911296064 12.8348078,0.275220691 C13.1746136,0.460916031 13.4472171,0.729525082 13.6486043,1.07526694 C13.8483691,1.41822347 13.9503539,1.77415268 13.9503539,2.13828125 C13.9503539,2.55406894 13.7188967,2.98681416 13.4907809,3.44518995 C13.2667292,3.8953993 12.9524998,4.32083836 12.4178891,5.00001174 L12.3003917,5.12285156 L12.0445871,5.35192355 L14,5.35192355 L14,7 L9.07814193,7 L9.07814193,5.98554688 L9.17911195,5.74049496 L10.9800051,3.82695099 C11.4133348,3.39214399 11.77981,3.05718932 11.9106676,2.81557985 C12.0353516,2.58536908 12.0941418,2.38912772 12.0941418,2.22851563 C12.0941418,2.08820171 12.0529006,1.98652895 11.9660329,1.90193322 C11.8784905,1.81668046 11.7672384,1.77460937 11.6114715,1.77460937 C11.4636071,1.77460937 11.3523966,1.82385579 11.2538919,1.93290599 C11.1476773,2.05049131 11.0872658,2.22080769 11.0789418,2.45806499 L11.067089,2.79589844 L9.2269351,2.79589844 L9.24400536,2.42973922 C9.27824372,1.69532221 9.51816978,1.09947682 9.96736119,0.660582592 C10.4175505,0.220713322 10.9973662,0 11.6859406,0 Z"/></svg>

<svg xmlns="http://www.w3.org/2000/svg" fill="currentColor" viewBox="0 0 14 14"><path d="M1.708 5.29 4.54 8.098 7.37 5.29a1.007 1.007 0 0 1 1.416 0 .986.986 0 0 1 0 1.403L5.955 9.5l2.83 2.806a.986.986 0 0 1 0 1.403 1.007 1.007 0 0 1-1.415 0l-2.83-2.806-2.832 2.806a1.007 1.007 0 0 1-1.415 0 .986.986 0 0 1 0-1.403L3.123 9.5.294 6.694a.986.986 0 0 1 0-1.403 1.007 1.007 0 0 1 1.415 0ZM11.686 0c.427 0 .812.091 1.149.275.34.186.612.455.814.8.2.343.301.7.301 1.063 0 .416-.231.849-.46 1.307-.223.45-.538.876-1.072 1.555l-.118.123-.255.229H14V7H9.078V5.986l.101-.246 1.801-1.913c.433-.435.8-.77.93-1.011.125-.23.184-.427.184-.587a.424.424 0 0 0-.128-.327.475.475 0 0 0-.355-.127.448.448 0 0 0-.357.158c-.106.117-.167.288-.175.525l-.012.338h-1.84l.017-.366c.034-.735.274-1.33.723-1.77.45-.44 1.03-.66 1.719-.66Z"/></svg>
